resources/icons/color/exploration.svg

<svg width="64" height="64" viewBox="0 0 64 64" fill="none" xmlns="http://www.w3.org/2000/svg">
<path d="M6 13C6 9.13401 9.13401 6 13 6H51C54.866 6 58 9.13401 58 13V51C58 54.866 54.866 58 51 58H13C9.13401 58 6 54.866 6 51V13Z" fill="url(#paint0_linear_41743_62831)"/>
<path d="M6 13C6 9.13401 9.13401 6 13 6H51C54.866 6 58 9.13401 58 13V51C58 54.866 54.866 58 51 58H13C9.13401 58 6 54.866 6 51V13Z" fill="url(#paint1_radial_41743_62831)" fill-opacity="0.2"/>
<path fill-rule="evenodd" clip-rule="evenodd" d="M51 7H13C9.68629 7 7 9.68629 7 13V51C7 54.3137 9.68629 57 13 57H51C54.3137 57 57 54.3137 57 51V13C57 9.68629 54.3137 7 51 7ZM13 6C9.13401 6 6 9.13401 6 13V51C6 54.866 9.13401 58 13 58H51C54.866 58 58 54.866 58 51V13C58 9.13401 54.866 6 51 6H13Z" fill="url(#paint2_linear_41743_62831)"/>
<path fill-rule="evenodd" clip-rule="evenodd" d="M34 32V39C34 42.3137 36.6863 45 40 45C43.3137 45 46 42.3137 46 39V38.4033L42.923 22.6404C42.5101 20.5254 40.6556 19 38.5017 19C36.0171 19 34 21.0141 34 23.5V26H30V23.5C30 21.0371 28.0051 19 25.5242 19C23.388 19 21.5496 20.5095 21.1339 22.6049L18 38.4018V39C18 42.3137 20.6863 45 24 45C27.3137 45 30 42.3137 30 39V32H34ZM24 43.5C26.4853 43.5 28.5 41.4853 28.5 39C28.5 36.5147 26.4853 34.5 24 34.5C21.5147 34.5 19.5 36.5147 19.5 39C19.5 41.4853 21.5147 43.5 24 43.5ZM44.5 39C44.5 41.4853 42.4853 43.5 40 43.5C37.5147 43.5 35.5 41.4853 35.5 39C35.5 36.5147 37.5147 34.5 40 34.5C42.4853 34.5 44.5 36.5147 44.5 39Z" fill="url(#paint3_linear_41743_62831)"/>
<defs>
<linearGradient id="paint0_linear_41743_62831" x1="20.4444" y1="6" x2="27.0222" y2="58.6222" gradientUnits="userSpaceOnUse">
<stop stop-color="white"/>
<stop offset="1" stop-color="#EBEBEB"/>
</linearGradient>
<radialGradient id="paint1_radial_41743_62831" cx="0" cy="0" r="1" gradientUnits="userSpaceOnUse" gradientTransform="translate(22.6111 19.5417) rotate(56.3099) scale(49.4762 42.8159)">
<stop offset="0.177083" stop-color="white"/>
<stop offset="1" stop-color="#B8B8B8"/>
</radialGradient>
<linearGradient id="paint2_linear_41743_62831" x1="22.7917" y1="6" x2="29.7931" y2="58.5109" gradientUnits="userSpaceOnUse">
<stop stop-color="#BBBBBB"/>
<stop offset="1" stop-color="#888888"/>
</linearGradient>
<linearGradient id="paint3_linear_41743_62831" x1="18" y1="19" x2="43.9288" y2="46.9233" gradientUnits="userSpaceOnUse">
<stop stop-color="#C28400"/>
<stop offset="1" stop-color="#A86500"/>
</linearGradient>
</defs>
</svg>

<svg xmlns="http://www.w3.org/2000/svg" width="64" height="64" fill="currentColor"><path fill="url(#a)" d="M6 13a7 7 0 0 1 7-7h38a7 7 0 0 1 7 7v38a7 7 0 0 1-7 7H13a7 7 0 0 1-7-7V13Z"/><path fill="url(#b)" fill-opacity=".2" d="M6 13a7 7 0 0 1 7-7h38a7 7 0 0 1 7 7v38a7 7 0 0 1-7 7H13a7 7 0 0 1-7-7V13Z"/><path fill="url(#c)" fill-rule="evenodd" d="M51 7H13a6 6 0 0 0-6 6v38a6 6 0 0 0 6 6h38a6 6 0 0 0 6-6V13a6 6 0 0 0-6-6ZM13 6a7 7 0 0 0-7 7v38a7 7 0 0 0 7 7h38a7 7 0 0 0 7-7V13a7 7 0 0 0-7-7H13Z" clip-rule="evenodd"/><path fill="url(#d)" fill-rule="evenodd" d="M34 32v7a6 6 0 0 0 12 0v-.597L42.923 22.64A4.505 4.505 0 0 0 38.502 19 4.501 4.501 0 0 0 34 23.5V26h-4v-2.5c0-2.463-1.995-4.5-4.476-4.5a4.476 4.476 0 0 0-4.39 3.605L18 38.402V39a6 6 0 0 0 12 0v-7h4ZM24 43.5a4.5 4.5 0 1 0 0-9 4.5 4.5 0 0 0 0 9ZM44.5 39a4.5 4.5 0 1 1-9 0 4.5 4.5 0 0 1 9 0Z" clip-rule="evenodd"/><defs><linearGradient id="a" x1="20.444" x2="27.022" y1="6" y2="58.622" gradientUnits="userSpaceOnUse"><stop stop-color="#fff"/><stop offset="1" stop-color="#EBEBEB"/></linearGradient><linearGradient id="c" x1="22.792" x2="29.793" y1="6" y2="58.511" gradientUnits="userSpaceOnUse"><stop stop-color="#BBB"/><stop offset="1" stop-color="#888"/></linearGradient><linearGradient id="d" x1="18" x2="43.929" y1="19" y2="46.923" gradientUnits="userSpaceOnUse"><stop stop-color="#C28400"/><stop offset="1" stop-color="#A86500"/></linearGradient><radialGradient id="b" cx="0" cy="0" r="1" gradientTransform="rotate(56.31 -6.951 30.895) scale(49.4762 42.8159)" gradientUnits="userSpaceOnUse"><stop offset=".177" stop-color="#fff"/><stop offset="1" stop-color="#B8B8B8"/></radialGradient></defs></svg>
